;FLAVOR:Marlin
;TIME:24715
;Filament used: 22.844m
;Layer height: 0.28
;MINX:53.97
;MINY:56.952
;MINZ:0.28
;MAXX:166.064
;MAXY:148.436
;MAXZ:66.92
;TARGET_MACHINE.NAME:Creality Ender-3 S1
;Generated with Cura_SteamEngine 5.7.1
M82 ;absolute extrusion mode
; Ender 3 S1 Start G-code
; M413 S0 ; Disable power loss recovery
G92 E0 ; Reset Extruder

; Prep surfaces before auto home for better accuracy
M140 S60
M104 S200

G28 ; Home all axes
G1 Z10.0 F3000 ; Move Z Axis up little to prevent scratching of Heat Bed
G1 X0 Y0

M190 S60
M109 S200

G1 X0.1 Y20 Z0.3 F5000.0 ; Move to start position
G1 X0.1 Y200.0 Z0.3 F1500.0 E15 ; Draw the first line
G1 X0.4 Y200.0 Z0.3 F5000.0 ; Move to side a little
G1 X0.4 Y20 Z0.3 F1500.0 E30 ; Draw the second line
G92 E0 ; Reset Extruder
G1 Z2.0 F3000 ; Move Z Axis up little to prevent scratching of Heat Bed
G1 X5 Y20 Z0.3 F5000.0 ; Move over to prevent blob squish

G92 E0
G92 E0
G1 F2400 E-0.8
;LAYER_COUNT:239
;LAYER:0
M107
M204 S2000
G0 F7500 X102.392 Y61.172 Z0.28
M204 S500
;TYPE:SKIRT
G1 F2400 E0
G1 F1500 X105.313 Y58.088 E0.19779
G1 X109.367 Y56.952 E0.39384
G1 X113.421 Y58.088 E0.58988
G1 X116.342 Y61.172 E0.78767
G1 X117.477 Y65.059 E0.97622
G1 X116.341 Y69.115 E1.17236
G1 X113.421 Y72.035 E1.36464
G1 X109.365 Y73.171 E1.56077
G1 X105.48 Y72.036 E1.74924
G1 X102.392 Y68.948 E1.95259
G1 X101.255 Y65.061 E2.14117
G1 X102.392 Y61.172 E2.32984
M204 S2000
G0 F7500 X102.749 Y61.378
M204 S500
G1 F1500 X105.528 Y58.443 E2.51805
G1 X109.367 Y57.367 E2.70369
G1 X113.206 Y58.443 E2.88934
G1 X115.985 Y61.377 E3.07752
G1 X117.061 Y65.061 E3.25623
G1 X115.984 Y68.906 E3.44216
G1 X113.212 Y71.678 E3.6247
G1 X109.368 Y72.755 E3.81058
G1 X105.691 Y71.681 E3.98895
G1 X102.747 Y68.737 E4.18282
G1 X101.672 Y65.061 E4.36116
G1 X102.749 Y61.378 E4.53984
M204 S2000
G0 F7500 X103.106 Y61.581
M204 S500
G1 F1500 X105.742 Y58.798 E4.71833
G1 X109.367 Y57.783 E4.89362
G1 X112.992 Y58.798 E5.0689
G1 X115.628 Y61.582 E5.24743
G1 X116.645 Y65.064 E5.41634
G1 X115.627 Y68.697 E5.59202
G1 X113.003 Y71.321 E5.76482
G1 X109.37 Y72.339 E5.9405
G1 X105.902 Y71.326 E6.10873
G1 X103.103 Y68.527 E6.29305
G1 X102.089 Y65.061 E6.46121
G1 X103.106 Y61.581 E6.63003
M204 S2000
G0 F7500 X103.463 Y61.786
M204 S500
G1 F1500 X105.956 Y59.154 E6.79884
G1 X109.367 Y58.198 E6.96379
G1 X112.778 Y59.154 E7.12874
G1 X115.271 Y61.786 E7.29755
G1 X116.229 Y65.067 E7.4567
G1 X115.271 Y68.487 E7.62208
G1 X112.793 Y70.965 E7.78526
G1 X109.373 Y71.923 E7.95064
G1 X106.113 Y70.971 E8.10878
G1 X103.458 Y68.316 E8.28362
G1 X102.506 Y65.061 E8.44153
G1 X103.463 Y61.786 E8.60041
M204 S2000
G0 F7500 X103.82 Y61.991
M204 S500
G1 F1500 X106.171 Y59.509 E8.7596
G1 X109.367 Y58.613 E8.91415
G1 X112.563 Y59.509 E9.06871
G1 X114.914 Y61.992 E9.22793
G1 X115.813 Y65.07 E9.37725
G1 X114.914 Y68.278 E9.53238
G1 X112.584 Y70.608 E9.68581
G1 X109.376 Y71.507 E9.84095
G1 X106.323 Y70.615 E9.98905
G1 X103.813 Y68.105 E10.15434
G1 X102.923 Y65.061 E10.30201
G1 X103.82 Y61.991 E10.45094
M204 S2000
G0 F7500 X104.177 Y62.196
M204 S500
G1 F1500 X106.385 Y59.864 E10.60048
G1 X109.367 Y59.028 E10.74469
G1 X112.349 Y59.864 E10.8889
G1 X114.557 Y62.195 E11.0384
G1 X115.397 Y65.073 E11.17801
G1 X114.558 Y68.068 E11.32283
G1 X112.374 Y70.252 E11.46665
G1 X109.379 Y71.091 E11.61148
G1 X106.534 Y70.26 E11.74949
G1 X104.168 Y67.894 E11.9053
G1 X103.339 Y65.061 E12.04275
G1 X104.177 Y62.196 E12.18174
M204 S2000
G0 F7500 X104.534 Y62.401
M204 S500
G1 F1500 X106.599 Y60.22 E12.3216
G1 X109.367 Y59.445 E12.45544
G1 X112.135 Y60.22 E12.58929
G1 X114.2 Y62.401 E12.72915
G1 X114.98 Y65.074 E12.8588
G1 X114.199 Y67.863 E12.99367
G1 X112.169 Y69.893 E13.12735
G1 X109.38 Y70.674 E13.26221
G1 X106.742 Y69.904 E13.39017
G1 X104.524 Y67.686 E13.53623
G1 X103.756 Y65.061 E13.66359
G1 X104.534 Y62.401 E13.79264
M204 S2000
G0 F7500 X104.89 Y62.607
M204 S500
G1 F1500 X106.814 Y60.575 E13.92294
G1 X109.367 Y59.86 E14.04639
G1 X111.92 Y60.575 E14.16984
G1 X113.843 Y62.605 E14.30005
G1 X114.565 Y65.076 E14.41992
G1 X113.843 Y67.653 E14.54453
G1 X111.959 Y69.537 E14.6686
G1 X109.382 Y70.258 E14.7932
G1 X106.953 Y69.549 E14.91103
G1 X104.878 Y67.474 E15.04767
G1 X104.172 Y65.061 E15.16474
G1 X104.89 Y62.607 E15.2838
M204 S2000
G0 F7500 X105.246 Y62.812
M204 S500
G1 F1500 X107.029 Y60.93 E15.40452
G1 X109.367 Y60.275 E15.51757
G1 X111.705 Y60.93 E15.63063
G1 X113.486 Y62.811 E15.75125
G1 X114.149 Y65.079 E15.86128
G1 X113.486 Y67.444 E15.97565
G1 X111.75 Y69.18 E16.08997
G1 X109.385 Y69.843 E16.20434
G1 X107.164 Y69.194 E16.31208
G1 X105.233 Y67.263 E16.43924
G1 X104.589 Y65.061 E16.54607
G1 X105.246 Y62.812 E16.65517
M204 S2000
G0 F7500 X105.603 Y63.017
M204 S500
G1 F1500 X107.243 Y61.285 E16.76624
G1 X109.367 Y60.69 E16.86895
G1 X111.491 Y61.285 E16.97166
G1 X113.129 Y63.015 E17.08259
G1 X113.733 Y65.081 E17.18282
G1 X113.129 Y67.235 E17.28699
G1 X111.541 Y68.823 E17.39156
G1 X109.388 Y69.427 E17.49569
G1 X107.375 Y68.839 E17.59334
G1 X105.588 Y67.052 E17.71101
G1 X105.006 Y65.061 E17.8076
G1 X105.603 Y63.017 E17.90676
M204 S2000
G0 F7500 X105.959 Y63.223
M204 S500
;TYPE:SUPPORT
G1 F1500 X107.456 Y61.642 E18.00814
G1 X109.365 Y61.104 E18.10049
G1 X111.276 Y61.642 E18.19294
G1 X112.769 Y63.219 E18.29406
G1 X113.315 Y65.082 E18.38445
G1 X112.769 Y67.023 E18.47834
G1 X111.331 Y68.465 E18.57317
G1 X109.386 Y69.008 E18.6672
G1 X107.586 Y68.482 E18.75452
G1 X105.942 Y66.838 E18.86278
G1 X105.421 Y65.06 E18.94905
G1 X105.959 Y63.223 E19.03819
M204 S2000
G1 F2400 E18.23819
;MESH:fred-torax-24.stl
G0 F7500 X105.13 Y62.981
G0 X104.523 Y65.06
G0 X105.957 Y78.548
G0 X57.11 Y110.953
M204 S500
;TYPE:WALL-INNER
G1 F2400 E19.03819
G1 F1336.3 X57.066 Y111.541 E19.06901
G1 F1538.5 X57.05 Y112.245 E19.10097
G1 F1492.5 X57.078 Y113.17 E19.14428
M204 S2000
G1 F2400 E18.34428
G0 F7500 X57.032 Y127.478
G0 X63.587 Y127.485
G0 X64.498 Y127.848
G0 X64.325 Y128.686
G0 X64.498 Y137.262
M204 S500
G1 F2400 E19.14428
G1 F1500 X63.827 Y137.389 E19.17608
G1 X63.298 Y137.379 E19.20072
G1 X62.883 Y137.28 E19.22058
G1 X62.26 Y136.964 E19.25311
G1 X61.747 Y136.472 E19.28621
G1 X61.412 Y135.84 E19.31952
G1 X61.276 Y135.154 E19.35208
G1 X61.349 Y134.471 E19.38407
G1 X61.509 Y134.006 E19.40696
G1 X61.453 Y133.767 E19.4184
G1 X61.358 Y133.632 E19.42608
G1 X59.696 Y131.965 E19.53569
G1 X59.444 Y131.574 E19.55735
G1 X59.36 Y131.372 E19.56754
G1 X59.268 Y130.926 E19.58874
G1 X59.373 Y130.359 E19.61559
G1 X59.462 Y130.138 E19.62669
G1 X59.644 Y129.86 E19.64216
G1 X59.8 Y129.704 E19.65243
G1 X60.397 Y129.296 E19.6861
G1 X60.913 Y129.034 E19.71305
G1 X61.5 Y128.799 E19.74249
G1 X63.078 Y128.468 E19.81757
G1 X64.183 Y128.468 E19.86902
G1 X65.756 Y128.799 E19.94387
G1 X66.341 Y129.033 E19.97321
G1 X66.848 Y129.289 E19.99966
G1 X67.556 Y129.775 E20.03965
G1 X67.796 Y130.135 E20.05979
G1 X67.887 Y130.359 E20.07105
G1 X67.993 Y130.932 E20.09819
G1 X67.866 Y131.498 E20.1252
G1 X67.559 Y131.966 E20.15126
G1 X65.905 Y133.625 E20.26034
G1 X65.775 Y133.808 E20.27079
G1 X65.75 Y133.979 E20.27884
G1 X65.973 Y134.81 E20.31891
G1 X65.934 Y135.52 E20.35202
G1 X65.696 Y136.171 E20.38429
G1 X65.392 Y136.6 E20.40877
G1 X65.003 Y136.959 E20.43342
G1 X64.498 Y137.262 E20.46085
M204 S2000
G1 F2400 E19.66085
G0 F7500 X65.52 Y136.73
G0 X127.025 Y146.988
G0 X141.319 Y146.229
M204 S500
G1 F2400 E20.46085
G1 F1500 X141.126 Y145.979 E20.47555
G1 X141.08 Y145.748 E20.48652
G1 X141.08 Y145.288 E20.50794
G1 X141.202 Y145.048 E20.52048
G1 X141.408 Y144.876 E20.53297
G1 X141.641 Y144.813 E20.54421
G1 X159.391 Y144.816 E21.37072
G1 X162.968 Y141.239 E21.60628
G1 X162.968 Y127.316 E22.25459
G1 X162.572 Y127.648 E22.27865
G1 X149.854 Y127.647 E22.87086
G1 X149.523 Y127.516 E22.88743
G1 X149.348 Y127.286 E22.90089
G1 X149.301 Y127.094 E22.91009
G1 X149.306 Y121.859 E23.15386
G1 X149.422 Y121.584 E23.16775
G1 X149.688 Y121.386 E23.1832
G1 X149.9 Y121.348 E23.19322
G1 X154.428 Y121.349 E23.40407
G1 X154.601 Y121.411 E23.41262
G1 X154.798 Y121.558 E23.42407
G1 X155.04 Y121.949 E23.44548
G1 X155.523 Y122.379 E23.47559
G1 X155.967 Y122.581 E23.49831
G1 X156.383 Y122.636 E23.51785
G1 X157.061 Y122.499 E23.55005
G1 X157.416 Y122.295 E23.56912
G1 X158.089 Y121.467 E23.6188
G1 X158.359 Y121.348 E23.63254
G1 X162.572 Y121.348 E23.82872
G1 X162.968 Y121.744 E23.8548
G1 X162.968 Y114.741 E24.18088
G1 F1442.3 X162.952 Y113.17 E24.25697
G1 F1415.1 X162.513 Y114.752 E24.338
G1 F1470.6 X162.035 Y115.683 E24.38771
G1 F1500 X161.5 Y116.428 E24.43042
G1 X160.944 Y117.039 E24.46888
G1 X160.083 Y117.731 E24.52032
G1 X159.341 Y118.15 E24.56
G1 X158.581 Y118.478 E24.59854
G1 X157.995 Y118.659 E24.6271
G1 X156.166 Y118.844 E24.7127
G1 X155.293 Y118.755 E24.75356
G1 X154.773 Y118.643 E24.77833
G1 X154.192 Y118.472 E24.80653
G1 X152.735 Y117.741 E24.88244
G1 X151.896 Y117.069 E24.93249
G1 X151.318 Y116.451 E24.97189
G1 X150.692 Y115.547 E25.02309
G1 X150.278 Y114.706 E25.06674
G1 X149.861 Y113.145 E25.14198
G1 X149.808 Y112.574 E25.16868
G1 X149.931 Y110.958 E25.24414
G1 X150.164 Y110.104 E25.28536
G1 X150.734 Y108.863 E25.34895
G1 X151.502 Y107.847 E25.40826
G1 X152.362 Y106.973 E25.46535
G1 X152.577 Y106.567 E25.48675
G1 X152.809 Y105.261 E25.54851
G1 X153.096 Y104.528 E25.58517
G1 X153.448 Y103.988 E25.61518
G1 X154.174 Y103.26 E25.66305
G1 X154.729 Y102.922 E25.69331
G1 X155.331 Y102.682 E25.72349
G1 X155.83 Y102.567 E25.74734
G1 X156.247 Y102.528 E25.76684
G1 X156.857 Y102.557 E25.79527
G1 X157.432 Y102.664 E25.82251
G1 X157.875 Y102.828 E25.8445
G1 X158.256 Y103.021 E25.86439
G1 X158.745 Y103.357 E25.89202
G1 X159.226 Y103.822 E25.92317
G1 X159.495 Y104.174 E25.9438
G1 X159.722 Y104.565 E25.96485
G1 X159.958 Y105.133 E25.99349
G1 X160.167 Y106.398 E26.05319
G1 X160.439 Y106.971 E26.08273
G1 X161.093 Y107.61 E26.12531
G1 X162.056 Y108.842 E26.19812
G1 X162.342 Y109.371 E26.22612
G1 F1342.3 X162.921 Y110.972 E26.31471
G1 F1255.2 X162.937 Y110.844 E26.32189
G1 F1392.1 X162.968 Y109.323 E26.39822
G1 F1500 X162.968 Y83.257 E27.61196
G1 X159.523 Y79.812 E27.83882
G1 X60.509 Y79.812 E32.44932
G1 X57.064 Y83.257 E32.67618
G1 X57.064 Y110.178 E33.92974
G1 F1345.3 X57.11 Y110.953 E33.97005
G1 X57.377 Y110.16 E34.01349
G1 F1500 X57.677 Y109.396 E34.05171
G1 X57.973 Y108.843 E34.08091
G1 X58.997 Y107.545 E34.1579
G1 X59.48 Y107.085 E34.18896
G1 X59.766 Y106.696 E34.21144
G1 X59.857 Y106.434 E34.22435
G1 X60.002 Y105.431 E34.27154
G1 X60.134 Y104.967 E34.29401
G1 X60.337 Y104.498 E34.3178
G1 X60.798 Y103.823 E34.35587
G1 X61.269 Y103.371 E34.38626
G1 X61.807 Y102.998 E34.41675
G1 X62.577 Y102.672 E34.45568
G1 X63.414 Y102.529 E34.49522
G1 X64.044 Y102.551 E34.52457
G1 X64.653 Y102.662 E34.5534
G1 X65.104 Y102.828 E34.57578
G1 X65.496 Y103.021 E34.59612
G1 X66.452 Y103.812 E34.6539
G1 X66.935 Y104.522 E34.69388
G1 X67.293 Y105.61 E34.74722
G1 X67.404 Y106.441 E34.78626
G1 X67.493 Y106.696 E34.79883
G1 X67.781 Y107.087 E34.82145
G1 X68.64 Y107.948 E34.87808
G1 X69.157 Y108.648 E34.9186
G1 X69.79 Y109.87 E34.98268
G1 X70.193 Y111.477 E35.05983
G1 X70.162 Y113.178 E35.13905
G1 X70.019 Y113.877 E35.17227
G1 X69.73 Y114.767 E35.21584
G1 X69.365 Y115.504 E35.25414
G1 X68.757 Y116.4 E35.30456
G1 X67.953 Y117.23 E35.35836
G1 X67.27 Y117.754 E35.39845
G1 X66.569 Y118.15 E35.43594
G1 X65.809 Y118.478 E35.47448
G1 X65.223 Y118.659 E35.50304
G1 X63.394 Y118.844 E35.58864
G1 X62.521 Y118.755 E35.6295
G1 X62.001 Y118.643 E35.65427
G1 X61.42 Y118.472 E35.68247
G1 X59.982 Y117.749 E35.75742
G1 X59.124 Y117.069 E35.8084
G1 X58.546 Y116.451 E35.8478
G1 X57.877 Y115.474 E35.90294
G1 F1474.2 X57.519 Y114.749 E35.94124
G1 F1421.8 X57.078 Y113.17 E36.02178
G1 F1445.8 X57.064 Y114.743 E36.09778
G1 F1500 X57.064 Y121.744 E36.42377
G1 X57.46 Y121.348 E36.44985
G1 X61.656 Y121.349 E36.64523
G1 X61.829 Y121.411 E36.65379
G1 X62.026 Y121.558 E36.66524
G1 X62.268 Y121.949 E36.68665
G1 X62.751 Y122.379 E36.71676
G1 X63.195 Y122.581 E36.73947
G1 X63.611 Y122.636 E36.75901
G1 X64.296 Y122.499 E36.79154
G1 X64.643 Y122.296 E36.81026
G1 X65.317 Y121.467 E36.86001
G1 X65.587 Y121.348 E36.87375
G1 X70.128 Y121.348 E37.0852
G1 X70.347 Y121.389 E37.09557
G1 X70.613 Y121.593 E37.11118
G1 X70.726 Y121.893 E37.12611
G1 X70.727 Y127.095 E37.36834
G1 X70.653 Y127.341 E37.3803
G1 X70.551 Y127.475 E37.38814
G1 X70.308 Y127.621 E37.40134
G1 X70.128 Y127.648 E37.40982
G1 X57.46 Y127.648 E37.99969
G1 X57.064 Y127.315 E38.02378
G1 X57.064 Y141.239 E38.67214
G1 X60.641 Y144.812 E38.90756
G1 X77.803 Y144.817 E39.7067
G1 X78.043 Y144.937 E39.71919
G1 X78.162 Y145.058 E39.72709
G1 X78.28 Y145.295 E39.73942
G1 X78.28 Y145.748 E39.76052
G1 X78.234 Y145.98 E39.77153
G1 X78.04 Y146.229 E39.78623
G1 X77.766 Y146.348 E39.80014
G1 X73.4 Y146.348 E40.00344
G1 X73.4 Y147.148 E40.04069
G1 X146.6 Y147.148 E43.44919
G1 X146.6 Y146.348 E43.48644
G1 X141.68 Y146.348 E43.71553
G1 X141.319 Y146.229 E43.73323
M204 S2000
G1 F2400 E42.93323
G0 F7500 X140.98 Y145.658
G0 X141.254 Y144.987
G0 X154.357 Y144.635
G0 X154.467 Y136.518
G0 X154.557 Y136.359
M204 S500
G1 F2400 E43.73323
G1 F1500 X153.872 Y135.849 E43.773
G1 X153.283 Y135.15 E43.81556
G1 X152.801 Y134.011 E43.87315
G1 X152.696 Y133.164 E43.91289
G1 X152.798 Y132.313 E43.9528
G1 X153.078 Y131.525 E43.99174
G1 X153.323 Y131.095 E44.01479
G1 X153.756 Y130.571 E44.04644
G1 X154.194 Y130.174 E44.07397
G1 X154.925 Y129.753 E44.11325
G1 X155.752 Y129.504 E44.15346
G1 X156.611 Y129.449 E44.19354
G1 X157.451 Y129.596 E44.23325
G1 X158.244 Y129.935 E44.27341
G1 X158.935 Y130.443 E44.31334
G1 X159.487 Y131.101 E44.35334
G1 X159.882 Y131.878 E44.39392
G1 X160.104 Y133.07 E44.45038
G1 X160.08 Y133.531 E44.47188
G1 X160.003 Y133.983 E44.49323
G1 X159.794 Y134.622 E44.52453
G1 X159.513 Y135.145 E44.55218
G1 X159.233 Y135.535 E44.57454
G1 X158.629 Y136.111 E44.6134
G1 X157.894 Y136.532 E44.65284
G1 X157.048 Y136.792 E44.69405
G1 X156.194 Y136.847 E44.7339
G1 X155.354 Y136.7 E44.77361
G1 X154.557 Y136.359 E44.81397
M204 S2000
G1 F2400 E44.01397
G0 F7500 X154.36 Y136.339
G0 X153.428 Y135.077
G0 X152.959 Y133.979
G0 X152.86 Y133.162
G0 X152.955 Y132.345
G0 X153.229 Y131.584
G0 X153.458 Y131.188
G0 X153.84 Y130.715
G0 X154.292 Y130.306
G0 X154.99 Y129.904
G0 X155.625 Y129.71
G0 X157.503 Y129.422
G0 X157.505 Y127.828
G0 X162.952 Y113.17
M204 S500
G1 F2400 E44.81397
G1 F1463.4 X162.974 Y111.841 E44.87741
G1 F1360.5 X162.921 Y110.972 E44.92211
M204 S2000
G1 F2400 E44.12211
G0 F7500 X162.784 Y113.131
G0 X162.365 Y114.688
G0 X161.879 Y115.639
G0 X161.402 Y116.302
G0 X160.835 Y116.924
G0 X159.992 Y117.598
G0 X159.301 Y117.995
G0 X157.961 Y118.502
G0 X156.351 Y118.664
G0 X154.212 Y118.584
G0 X154.358 Y118.104
M204 S500
;TYPE:WALL-OUTER
G1 F2400 E44.92211
G1 F1500 X152.934 Y117.388 E44.99633
G1 X152.146 Y116.757 E45.04333
G1 X151.612 Y116.18 E45.07994
G1 X151.014 Y115.308 E45.12918
G1 X150.66 Y114.588 E45.16654
G1 X150.256 Y113.079 E45.23928
G1 X150.208 Y112.563 E45.26341
G1 X150.329 Y111.004 E45.33622
G1 X150.542 Y110.234 E45.37342
G1 X151.085 Y109.06 E45.43365
G1 X151.813 Y108.099 E45.48979
G1 X152.688 Y107.212 E45.5478
G1 X152.96 Y106.698 E45.57488
G1 X153.192 Y105.377 E45.63734
G1 X153.452 Y104.711 E45.67063
G1 X153.77 Y104.225 E45.69767
G1 X154.419 Y103.581 E45.74024
G1 X154.927 Y103.27 E45.76798
G1 X155.449 Y103.064 E45.79411
G1 X155.874 Y102.965 E45.81443
G1 X156.232 Y102.928 E45.83119
G1 X156.785 Y102.951 E45.85696
G1 X157.336 Y103.055 E45.88307
G1 X157.68 Y103.179 E45.9001
G1 X158.03 Y103.351 E45.91826
G1 X158.502 Y103.678 E45.94499
G1 X158.91 Y104.068 E45.97128
G1 X159.152 Y104.38 E45.98966
G1 X159.34 Y104.692 E46.00662
G1 X159.574 Y105.263 E46.03536
G1 X159.781 Y106.519 E46.09463
G1 X160.109 Y107.209 E46.13021
G1 X160.778 Y107.856 E46.17354
G1 X161.71 Y109.048 E46.244
G1 X161.982 Y109.551 E46.27063
G1 X162.479 Y111.03 E46.34328
G1 X162.579 Y111.798 E46.37934
G1 X162.542 Y113.099 E46.43995
G1 X162.131 Y114.62 E46.51331
G1 X161.679 Y115.5 E46.55938
G1 X161.219 Y116.141 E46.59611
G1 X160.658 Y116.756 E46.63488
G1 X159.87 Y117.389 E46.68194
G1 X159.181 Y117.784 E46.71892
G1 X158.463 Y118.096 E46.75538
