;FLAVOR:Marlin
;TIME:1179
;Filament used: 0.286554m
;Layer height: 0.28
;MINX:96.7
;MINY:103.7
;MINZ:0.28
;MAXX:123.3
;MAXY:118.3
;MAXZ:1.96
;TARGET_MACHINE.NAME:Creality Ender-3 S1
;Generated with Cura_SteamEngine 5.7.1
M82 ;absolute extrusion mode
; Ender 3 S1 Start G-code
; M413 S0 ; Disable power loss recovery
G92 E0 ; Reset Extruder

; Prep surfaces before auto home for better accuracy
M140 S60
M104 S200

G28 ; Home all axes
G1 Z10.0 F3000 ; Move Z Axis up little to prevent scratching of Heat Bed
G1 X0 Y0

M190 S60
M109 S200

G1 X0.1 Y20 Z0.3 F5000.0 ; Move to start position
G1 X0.1 Y200.0 Z0.3 F1500.0 E15 ; Draw the first line
G1 X0.4 Y200.0 Z0.3 F5000.0 ; Move to side a little
G1 X0.4 Y20 Z0.3 F1500.0 E30 ; Draw the second line
G92 E0 ; Reset Extruder
G1 Z2.0 F3000 ; Move Z Axis up little to prevent scratching of Heat Bed
G1 X5 Y20 Z0.3 F5000.0 ; Move over to prevent blob squish

G92 E0
G92 E0
G1 F2400 E-0.8
;LAYER_COUNT:7
;LAYER:0
M107
M204 S2000
;MESH:fred-tampa-24.stl
G0 F6000 X122.9 Y117.9 Z0.28
M204 S500
;TYPE:WALL-INNER
G1 F2400 E0
G1 F600 X122.9 Y112.345 E0.25866
G1 X122.737 Y112.601 E0.2728
G1 X122.227 Y113.109 E0.30631
G1 X121.502 Y113.482 E0.34428
G1 X120.696 Y113.608 E0.38227
G1 X119.883 Y113.482 E0.42057
G1 X119.155 Y113.105 E0.45875
G1 X118.585 Y112.535 E0.49628
G1 X118.213 Y111.811 E0.53419
G1 X118.085 Y111.007 E0.5721
G1 X118.216 Y110.179 E0.61113
G1 X118.59 Y109.456 E0.64903
G1 X119.159 Y108.887 E0.6865
G1 X119.887 Y108.518 E0.72451
G1 X120.671 Y108.391 E0.76149
G1 X121.499 Y108.517 E0.80049
G1 X122.225 Y108.885 E0.83839
G1 X122.737 Y109.395 E0.87204
G1 X122.9 Y109.651 E0.88617
G1 X122.9 Y104.1 E1.14465
G1 X113.852 Y104.1 E1.56596
G1 X113.854 Y108.307 E1.76186
G1 X113.646 Y109.206 E1.80483
G1 X113.059 Y110.007 E1.85107
G1 X112.189 Y110.611 E1.90038
G1 X111.14 Y110.981 E1.95218
G1 X110 Y111.1 E2.00555
G1 X108.859 Y110.982 E2.05896
G1 X107.808 Y110.606 E2.11094
G1 X106.929 Y109.99 E2.16092
G1 X106.355 Y109.207 E2.20613
G1 X106.146 Y108.309 E2.24906
G1 X106.144 Y104.1 E2.44505
G1 X97.1 Y104.1 E2.86617
G1 X97.1 Y109.823 E3.13266
G1 X97.285 Y109.461 E3.15159
G1 X97.859 Y108.887 E3.18939
G1 X98.592 Y108.517 E3.22762
G1 X99.403 Y108.389 E3.26585
G1 X100.201 Y108.518 E3.30349
G1 X100.929 Y108.887 E3.3415
G1 X101.49 Y109.448 E3.37844
G1 X101.872 Y110.177 E3.41677
G1 X102.003 Y111.004 E3.45575
G1 X101.876 Y111.81 E3.49375
G1 X101.502 Y112.536 E3.53178
G1 X100.931 Y113.107 E3.56938
G1 X100.199 Y113.483 E3.6077
G1 X99.4 Y113.606 E3.64534
G1 X98.582 Y113.482 E3.68386
G1 X97.856 Y113.106 E3.72193
G1 X97.285 Y112.535 E3.75953
G1 X97.1 Y112.173 E3.77846
G1 X97.1 Y117.9 E4.04514
G1 X122.9 Y117.9 E5.24649
M204 S2000
G0 F6000 X123.3 Y118.3
M204 S500
;TYPE:WALL-OUTER
G1 F600 X123.3 Y112.464 E5.51824
G1 F563.4 X123.274 Y111.686 E5.55685
G1 F562.1 X123.299 Y111 E5.59097
G1 X123.274 Y110.311 E5.62524
G1 F563.4 X123.3 Y109.532 E5.66389
G1 F600 X123.3 Y103.7 E5.93545
G1 X113.452 Y103.7 E6.39402
G1 X113.447 Y108.047 E6.59643
G1 X113.416 Y108.072 E6.59829
G1 X113.452 Y108.259 E6.60715
G1 X113.276 Y109.037 E6.6443
G1 X112.774 Y109.718 E6.68369
G1 X112.006 Y110.252 E6.72725
G1 X111.039 Y110.59 E6.77495
G1 X110 Y110.7 E6.8236
G1 X108.925 Y110.581 E6.87396
G1 X107.992 Y110.252 E6.92003
G1 X107.229 Y109.717 E6.96342
G1 X106.724 Y109.036 E7.0029
G1 X106.548 Y108.26 E7.03995
G1 X106.581 Y108.075 E7.0487
G1 X106.55 Y108.051 E7.05052
G1 X106.544 Y103.7 E7.25312
G1 X96.7 Y103.7 E7.7115
G1 X96.7 Y109.511 E7.98209
G1 F560.7 X96.728 Y110.141 E8.01351
G1 F504.2 X96.748 Y110.304 E8.02261
G1 F509.6 X96.723 Y111 E8.06079
G1 X96.748 Y111.693 E8.09881
G1 F503.1 X96.728 Y111.855 E8.10788
G1 F560.7 X96.7 Y112.485 E8.1393
G1 F600 X96.7 Y118.3 E8.41007
G1 X123.3 Y118.3 E9.64867
M204 S2000
G1 F2400 E8.84867
G0 F6000 X123.03 Y118.03
G0 X122.715 Y112.883
G0 X121.27 Y113.346
G0 X120.116 Y113.621
G0 X120.692 Y113.2
M204 S500
G1 F2400 E9.64867
G1 F600 X120.009 Y113.097 E9.68084
G1 X119.395 Y112.779 E9.71304
G1 X118.913 Y112.293 E9.74491
G1 X118.593 Y111.665 E9.77773
G1 X118.492 Y110.986 E9.80969
G1 X118.595 Y110.327 E9.84075
G1 X118.911 Y109.706 E9.8732
G1 X119.396 Y109.216 E9.9053
G1 X120.013 Y108.903 E9.93751
G1 X120.691 Y108.793 E9.9695
G1 X121.376 Y108.903 E10.0018
G1 X121.991 Y109.215 E10.03391
G1 F581.1 X122.473 Y109.697 E10.06669
G1 F546.7 X122.824 Y110.345 E10.10435
G1 F545.5 X122.9 Y111 E10.13812
G1 X122.824 Y111.655 E10.1719
G1 F546.7 X122.473 Y112.299 E10.20938
G1 F581.1 X121.993 Y112.779 E10.24201
G1 F600 X121.374 Y113.097 E10.27442
G1 X120.692 Y113.2 E10.30654
M204 S2000
G1 F2400 E9.50654
G0 F6000 X120.116 Y113.621
G0 X122.327 Y113.238
G0 X122.715 Y112.883
G0 X122.728 Y117.728
G0 X97.272 Y117.728
G0 X97.284 Y112.795
G0 X98.816 Y113.621
G0 X99.381 Y113.2
M204 S500
G1 F2400 E10.30654
G1 F600 X98.708 Y113.097 E10.33824
G1 X98.096 Y112.78 E10.37033
G1 X97.634 Y112.318 E10.40076
G1 F535.7 X97.242 Y111.655 E10.44092
G1 F495.9 X97.166 Y111 E10.47808
G1 X97.242 Y110.342 E10.5154
G1 F535.7 X97.634 Y109.678 E10.55561
G1 F600 X98.097 Y109.215 E10.5861
G1 X98.713 Y108.903 E10.61825
G1 X99.391 Y108.793 E10.65023
G1 X100.076 Y108.903 E10.68254
G1 X100.692 Y109.216 E10.71471
G1 X101.182 Y109.713 E10.74721
G1 X101.493 Y110.325 E10.77918
G1 X101.596 Y110.984 E10.81024
G1 X101.491 Y111.678 E10.84292
G1 X101.175 Y112.293 E10.87512
G1 X100.693 Y112.779 E10.90699
G1 X100.072 Y113.098 E10.9395
G1 X99.381 Y113.2 E10.97202
M204 S2000
G1 F2400 E10.17202
G0 F6000 X98.816 Y113.621
G0 X97.284 Y112.795
G0 X97.272 Y117.728
G0 X122.728 Y117.728
G0 X122.54 Y117.54
M204 S500
;TYPE:SKIN
G1 F2400 E10.97202
G1 F600 X97.46 Y117.539 E12.13985
G1 X97.456 Y113.219 E12.34101
G1 X97.664 Y113.414 E12.35428
G1 X98.36 Y113.772 E12.39073
G1 X98.592 Y113.844 E12.40204
G1 X99.377 Y113.968 E12.43905
G1 X100.309 Y113.83 E12.48292
G1 X101.035 Y113.454 E12.52099
G1 X101.231 Y113.31 E12.53231
G1 X101.795 Y112.749 E12.56935
G1 X102.222 Y111.912 E12.61311
G1 X102.367 Y111.012 E12.65556
G1 X102.215 Y110.073 E12.69985
G1 X101.796 Y109.244 E12.7431
G1 X101.254 Y108.702 E12.77879
G1 X101.003 Y108.521 E12.7932
G1 X100.447 Y108.237 E12.82227
G1 X100.161 Y108.146 E12.83625
G1 X99.373 Y108.024 E12.87338
G1 X98.623 Y108.146 E12.90876
G1 X98.367 Y108.225 E12.92124
G1 X97.669 Y108.577 E12.95764
G1 X97.456 Y108.777 E12.97124
G1 X97.46 Y104.461 E13.17221
G1 X105.784 Y104.46 E13.55981
G1 X105.789 Y108.379 E13.7423
G1 X106.025 Y109.371 E13.78978
G1 X106.689 Y110.264 E13.8416
G1 X107.64 Y110.932 E13.89571
G1 X108.757 Y111.325 E13.95085
G1 X109.996 Y111.46 E14.00888
G1 X111.211 Y111.333 E14.06577
G1 X112.358 Y110.931 E14.12236
G1 X113.303 Y110.273 E14.17598
G1 X113.977 Y109.36 E14.22882
G1 X114.209 Y108.341 E14.27749
G1 X114.212 Y104.46 E14.4582
G1 X122.54 Y104.46 E14.84599
G1 X122.54 Y108.712 E15.04398
G1 X122.34 Y108.545 E15.05611
G1 X121.748 Y108.237 E15.08719
G1 X121.461 Y108.146 E15.10121
G1 X120.693 Y108.021 E15.13744
G1 X119.773 Y108.167 E15.18081
G1 X119.06 Y108.536 E15.2182
G1 X118.856 Y108.68 E15.22982
G1 X118.31 Y109.222 E15.26565
G1 X117.868 Y110.054 E15.30952
G1 X117.721 Y111.008 E15.35446
G1 X117.863 Y111.912 E15.39707
G1 X118.288 Y112.748 E15.44074
G1 X118.83 Y113.29 E15.47643
G1 X119.049 Y113.454 E15.48917
G1 X119.628 Y113.754 E15.51954
G1 X119.894 Y113.843 E15.5326
G1 X120.692 Y113.968 E15.57021
G1 X121.488 Y113.844 E15.60772
G1 X121.72 Y113.772 E15.61903
G1 X122.42 Y113.414 E15.65564
G1 X122.54 Y113.308 E15.6631
G1 X122.54 Y117.54 E15.86016
M204 S2000
G0 F6000 X122.8 Y117.54
G0 X122.715 Y112.883
G0 X121.451 Y113.327
G0 X120.695 Y113.448
G0 X119.939 Y113.327
G0 X119.257 Y112.98
G0 X118.715 Y112.438
G0 X118.368 Y111.756
G0 X118.248 Y111
G0 X118.368 Y110.244
G0 X118.715 Y109.562
G0 X119.257 Y109.02
G0 X119.939 Y108.673
G0 X120.695 Y108.553
G0 X122.413 Y108.844
G0 X122.715 Y109.113
G0 X122.728 Y104.272
G0 X122.196 Y104.2
G0 X122.196 Y104.66
M204 S500
G1 F600 X122.34 Y104.804 E15.86964
M204 S2000
G0 F6000 X122.34 Y105.37
M204 S500
G1 F600 X121.63 Y104.66 E15.9164
M204 S2000
G0 F6000 X121.064 Y104.66
M204 S500
G1 F600 X122.34 Y105.935 E16.00039
M204 S2000
G0 F6000 X122.34 Y106.501
M204 S500
G1 F600 X120.499 Y104.66 E16.12162
M204 S2000
G0 F6000 X119.933 Y104.66
M204 S500
G1 F600 X122.34 Y107.067 E16.28013
M204 S2000
G0 F6000 X122.34 Y107.632
M204 S500
G1 F600 X119.367 Y104.66 E16.47587
M204 S2000
G0 F6000 X118.802 Y104.66
M204 S500
G1 F600 X122.34 Y108.198 E16.70886
M204 S2000
G0 F6000 X121.537 Y107.96
M204 S500
G1 F600 X118.236 Y104.66 E16.9262
M204 S2000
G0 F6000 X117.67 Y104.66
M204 S500
G1 F600 X120.859 Y107.849 E17.1362
M204 S2000
G0 F6000 X120.322 Y107.877
M204 S500
G1 F600 X117.105 Y104.66 E17.34804
M204 S2000
G0 F6000 X116.539 Y104.66
M204 S500
G1 F600 X119.833 Y107.954 E17.56496
M204 S2000
G0 F6000 X119.43 Y108.117
M204 S500
G1 F600 X115.973 Y104.66 E17.79261
M204 S2000
G0 F6000 X115.408 Y104.66
M204 S500
G1 F600 X119.058 Y108.31 E18.03297
M204 S2000
G0 F6000 X118.72 Y108.537
M204 S500
G1 F600 X114.842 Y104.66 E18.28831
M204 S2000
G0 F6000 X114.411 Y104.795
M204 S500
G1 F600 X118.435 Y108.818 E18.55326
M204 S2000
G0 F6000 X118.15 Y109.099
M204 S500
G1 F600 X114.411 Y105.36 E18.79948
M204 S2000
G0 F6000 X114.411 Y105.925
M204 S500
G1 F600 X117.952 Y109.467 E19.0327
M204 S2000
G0 F6000 X117.757 Y109.837
M204 S500
G1 F600 X114.41 Y106.49 E19.2531
M204 S2000
G0 F6000 X114.409 Y107.055
M204 S500
G1 F600 X117.631 Y110.278 E19.46531
M204 S2000
G0 F6000 X117.556 Y110.768
M204 S500
G1 F600 X114.409 Y107.621 E19.67254
M204 S2000
G0 F6000 X114.408 Y108.186
M204 S500
G1 F600 X117.573 Y111.35 E19.88093
M204 S2000
G0 F6000 X117.704 Y112.047
M204 S500
G1 F600 X114.338 Y108.682 E20.10256
M204 S2000
G0 F6000 X114.232 Y109.141
M204 S500
G1 F600 X122.34 Y117.249 E20.63648
M204 S2000
G0 F6000 X121.864 Y117.339
M204 S500
G1 F600 X114.08 Y109.555 E21.14907
M204 S2000
G0 F6000 X113.841 Y109.882
M204 S500
G1 F600 X121.299 Y117.339 E21.64016
M204 S2000
G0 F6000 X120.733 Y117.339
M204 S500
G1 F600 X113.602 Y110.208 E22.10975
M204 S2000
G0 F6000 X113.327 Y110.499
M204 S500
G1 F600 X120.167 Y117.339 E22.56017
M204 S2000
G0 F6000 X119.601 Y117.339
M204 S500
G1 F600 X112.994 Y110.732 E22.99526
M204 S2000
G0 F6000 X112.661 Y110.964
M204 S500
G1 F600 X119.036 Y117.339 E23.41506
M204 S2000
G0 F6000 X118.47 Y117.339
M204 S500
G1 F600 X112.297 Y111.166 E23.82156
M204 S2000
G0 F6000 X111.879 Y111.313
M204 S500
G1 F600 X117.904 Y117.339 E24.21835
M204 S2000
G0 F6000 X117.339 Y117.339
M204 S500
G1 F600 X111.461 Y111.461 E24.60543
M204 S2000
G0 F6000 X110.992 Y111.558
M204 S500
G1 F600 X116.773 Y117.339 E24.98612
M204 S2000
G0 F6000 X116.207 Y117.339
M204 S500
G1 F600 X110.479 Y111.61 E25.36335
M204 S2000
G0 F6000 X109.959 Y111.656
M204 S500
G1 F600 X115.642 Y117.339 E25.73759
M204 S2000
G0 F6000 X115.076 Y117.339
M204 S500
G1 F600 X109.328 Y111.591 E26.1161
M204 S2000
G0 F6000 X108.682 Y111.511
M204 S500
G1 F600 X114.51 Y117.339 E26.49988
M204 S2000
G0 F6000 X113.945 Y117.339
M204 S500
G1 F600 X107.81 Y111.205 E26.90385
M204 S2000
G0 F6000 X107.963 Y110.773
G0 X106.22 Y109.062
G0 X105.772 Y109.166
M204 S500
G1 F600 X101.267 Y104.661 E27.20051
M204 S2000
G0 F6000 X100.701 Y104.661
M204 S500
G1 F600 X113.379 Y117.339 E28.03538
M204 S2000
G0 F6000 X112.813 Y117.339
M204 S500
G1 F600 X100.136 Y104.661 E28.87022
M204 S2000
G0 F6000 X99.57 Y104.661
M204 S500
G1 F600 X112.248 Y117.339 E29.70508
M204 S2000
G0 F6000 X111.682 Y117.339
M204 S500
G1 F600 X99.004 Y104.661 E30.53995
M204 S2000
G0 F6000 X98.438 Y104.661
M204 S500
G1 F600 X111.116 Y117.339 E31.37482
M204 S2000
G0 F6000 X110.55 Y117.339
M204 S500
G1 F600 X97.873 Y104.661 E32.20966
M204 S2000
G0 F6000 X97.66 Y105.014
M204 S500
G1 F600 X100.879 Y108.233 E32.42163
M204 S2000
G0 F6000 X100 Y107.92
M204 S500
G1 F600 X97.659 Y105.579 E32.57579
M204 S2000
G0 F6000 X97.659 Y106.144
M204 S500
G1 F600 X99.341 Y107.827 E32.68659
M204 S2000
G0 F6000 X98.855 Y107.906
M204 S500
G1 F600 X97.659 Y106.709 E32.76538
M204 S2000
G0 F6000 X97.658 Y107.274
M204 S500
G1 F600 X98.392 Y108.008 E32.81371
M204 S2000
G0 F6000 X98.004 Y108.186
M204 S500
G1 F600 X97.657 Y107.839 E32.83656
M204 S2000
G0 F6000 X97.2 Y107.838
G0 X97.284 Y109.201
G0 X98.507 Y108.379
G0 X100.151 Y108.673
G0 X100.704 Y108.954
G0 X101.749 Y109.72
G0 X102.157 Y109.511
M204 S500
G1 F600 X109.985 Y117.339 E33.35205
M204 S2000
G0 F6000 X109.419 Y117.339
M204 S500
G1 F600 X102.468 Y110.387 E33.80982
M204 S2000
G0 F6000 X102.563 Y111.048
M204 S500
G1 F600 X108.853 Y117.339 E34.22406
M204 S2000
G0 F6000 X108.288 Y117.339
M204 S500
G1 F600 X102.484 Y111.535 E34.60626
M204 S2000
G0 F6000 X102.398 Y112.015
M204 S500
G1 F600 X107.722 Y117.339 E34.95686
M204 S2000
G0 F6000 X107.156 Y117.339
M204 S500
G1 F600 X102.206 Y112.388 E35.28286
M204 S2000
G0 F6000 X102.014 Y112.762
M204 S500
G1 F600 X106.591 Y117.339 E35.58426
M204 S2000
G0 F6000 X106.025 Y117.339
M204 S500
G1 F600 X101.756 Y113.07 E35.86538
M204 S2000
G0 F6000 X101.471 Y113.351
M204 S500
G1 F600 X105.459 Y117.339 E36.128
M204 S2000
G0 F6000 X104.894 Y117.339
M204 S500
G1 F600 X101.161 Y113.606 E36.37382
M204 S2000
G0 F6000 X100.795 Y113.806
M204 S500
G1 F600 X104.328 Y117.339 E36.60648
M204 S2000
G0 F6000 X103.762 Y117.339
M204 S500
G1 F600 X100.421 Y113.998 E36.82649
M204 S2000
G0 F6000 X99.945 Y114.087
M204 S500
G1 F600 X103.197 Y117.339 E37.04064
M204 S2000
G0 F6000 X102.631 Y117.339
M204 S500
G1 F600 X99.452 Y114.16 E37.24998
M204 S2000
G0 F6000 X98.804 Y114.078
M204 S500
G1 F600 X102.065 Y117.339 E37.46472
M204 S2000
G0 F6000 X101.5 Y117.339
M204 S500
G1 F600 X97.947 Y113.786 E37.69869
M204 S2000
G0 F6000 X97.658 Y114.063
M204 S500
G1 F600 X100.934 Y117.339 E37.91442
M204 S2000
G0 F6000 X100.368 Y117.339
M204 S500
G1 F600 X97.658 Y114.628 E38.09291
M204 S2000
G0 F6000 X97.659 Y115.195
M204 S500
G1 F600 X99.802 Y117.339 E38.23407
M204 S2000
G0 F6000 X99.237 Y117.339
M204 S500
G1 F600 X97.659 Y115.76 E38.33801
M204 S2000
G0 F6000 X97.659 Y116.327
M204 S500
G1 F600 X98.671 Y117.339 E38.40466
M204 S2000
G0 F6000 X98.105 Y117.339
M204 S500
G1 F600 X97.659 Y116.893 E38.43403
M204 S2000
G1 F2400 E37.63403
G0 F6000 X97.199 Y116.893
G0 X97.284 Y112.795
G0 X99.391 Y113.77
G0 X100.622 Y113.476
G0 X102.028 Y111.864
G0 X101.635 Y109.366
G0 X99.389 Y108.225
G0 X97.284 Y109.201
G0 X97.272 Y104.272
G0 X105.972 Y104.272
G0 X106.047 Y108.06
G0 X105.594 Y108.423
M204 S500
G1 F2400 E38.43403
G1 F600 X101.833 Y104.661 E38.68173
M204 S2000
G0 F6000 X102.398 Y104.661
M204 S500
G1 F600 X105.584 Y107.847 E38.89153
M204 S2000
G0 F6000 X105.584 Y107.282
M204 S500
G1 F600 X102.964 Y104.661 E39.06409
M204 S2000
G0 F6000 X103.53 Y104.661
M204 S500
G1 F600 X105.584 Y106.716 E39.19939
M204 S2000
G0 F6000 X105.584 Y106.15
M204 S500
G1 F600 X104.095 Y104.661 E39.29744
M204 S2000
G0 F6000 X104.661 Y104.661
M204 S500
G1 F600 X105.584 Y105.584 E39.35822
M204 S2000
G0 F6000 X105.584 Y105.019
M204 S500
G1 F600 X105.227 Y104.661 E39.38176
M204 S2000
G1 F2400 E38.58176
G0 F6000 X106.045 Y104.661
G0 X106.347 Y108.432
G0 X106.5 Y109.133
G0 X107.059 Y109.894
G0 X107.887 Y110.467
G0 X108.898 Y110.823
G0 X110 Y110.945
G0 X111.102 Y110.823
G0 X112.113 Y110.467
G0 X113.81 Y109.202
G0 X114.024 Y104.272
G0 X122.728 Y104.272
G0 X122.715 Y109.113
G0 X120.691 Y108.225
G0 X118.47 Y109.349
G0 X118.055 Y111.855
G0 X119.679 Y113.49
G0 X119.622 Y113.965
M204 S500
G1 F2400 E39.38176
G1 F600 X122.34 Y116.683 E39.56075
M204 S2000
G0 F6000 X122.34 Y116.118
M204 S500
G1 F600 X120.341 Y114.119 E39.69239
M204 S2000
G0 F6000 X120.926 Y114.138
M204 S500
G1 F600 X122.34 Y115.552 E39.7855
M204 S2000
G0 F6000 X122.34 Y114.986
M204 S500
G1 F600 X121.414 Y114.061 E39.84645
M204 S2000
G0 F6000 X121.848 Y113.928
M204 S500
G1 F600 X122.34 Y114.42 E39.87884
M204 S2000
G0 F6000 X122.34 Y113.855
M204 S500
G1 F600 X122.224 Y113.739 E39.88648
M104 S200
M204 S2000
;MESH:NONMESH
G0 F300 X122.224 Y113.739 Z0.56
G0 F6000 X121.411 Y113.598
G0 X122.715 Y112.883
G0 X122.9 Y117.9
;TIME_ELAPSED:102.260899
;LAYER:1
M106 S85
M204 S500
;TYPE:WALL-INNER
;MESH:fred-tampa-24.stl
G1 F600 X122.9 Y112.345 E40.14515
