;FLAVOR:Marlin
;TIME:1193
;Filament used: 0.753666m
;Layer height: 0.28
;MINX:84.696
;MINY:87.296
;MINZ:0.28
;MAXX:135.955
;MAXY:135.51
;MAXZ:17.64
;TARGET_MACHINE.NAME:Creality Ender-3 S1
;Generated with Cura_SteamEngine 5.7.1
M82 ;absolute extrusion mode
; Ender 3 S1 Start G-code
; M413 S0 ; Disable power loss recovery
G92 E0 ; Reset Extruder

; Prep surfaces before auto home for better accuracy
M140 S60
M104 S200

G28 ; Home all axes
G1 Z10.0 F3000 ; Move Z Axis up little to prevent scratching of Heat Bed
G1 X0 Y0

M190 S60
M109 S200

G1 X0.1 Y20 Z0.3 F5000.0 ; Move to start position
G1 X0.1 Y200.0 Z0.3 F1500.0 E15 ; Draw the first line
G1 X0.4 Y200.0 Z0.3 F5000.0 ; Move to side a little
G1 X0.4 Y20 Z0.3 F1500.0 E30 ; Draw the second line
G92 E0 ; Reset Extruder
G1 Z2.0 F3000 ; Move Z Axis up little to prevent scratching of Heat Bed
G1 X5 Y20 Z0.3 F5000.0 ; Move over to prevent blob squish

G92 E0
G92 E0
G1 F2400 E-0.8
;LAYER_COUNT:63
;LAYER:0
M107
M204 S2000
G0 F7500 X89.034 Y100.654 Z0.28
M204 S500
;TYPE:SKIRT
G1 F2400 E0
G1 F1500 X89.999 Y99.849 E0.05852
G1 X90.31 Y99.62 E0.0765
G1 X91.189 Y99.038 E0.12559
G1 X93.794 Y97.499 E0.26648
G1 X95.96 Y96.13 E0.38579
G1 X98.031 Y94.737 E0.50201
G1 X100.073 Y93.279 E0.61884
G1 X102.109 Y91.737 E0.73777
G1 X104.085 Y90.158 E0.85555
G1 X104.874 Y89.585 E0.90095
G1 X105.709 Y89.086 E0.94625
G1 X106.521 Y88.69 E0.98832
G1 X107.857 Y88.206 E1.05448
G1 X109.134 Y87.836 E1.11639
G1 X109.816 Y87.656 E1.14923
G1 X110.768 Y87.451 E1.19458
G1 X111.734 Y87.331 E1.23991
G1 X112.707 Y87.296 E1.28524
G1 X113.609 Y87.341 E1.3273
G1 X114.638 Y87.486 E1.37568
G1 X115.414 Y87.661 E1.41272
G1 X116.794 Y88.03 E1.47924
G1 X117.482 Y88.234 E1.51266
G1 X118.4 Y88.555 E1.55794
G1 X119.289 Y88.956 E1.60335
G1 X120.137 Y89.435 E1.6487
G1 X120.94 Y89.986 E1.69405
G1 X121.686 Y90.6 E1.73904
G1 X122.223 Y91.12 E1.77385
G1 X123.011 Y91.934 E1.8266
G1 X123.623 Y92.594 E1.86851
G1 X124.02 Y93.048 E1.89659
G1 X124.851 Y94.058 E1.9575
G1 X126.488 Y95.993 E2.07552
G1 X128.172 Y97.872 E2.19301
G1 X129.911 Y99.709 E2.31079
G1 X131.029 Y100.831 E2.38455
G1 X131.589 Y101.42 E2.42239
G1 X132.226 Y102.156 E2.46772
G1 X132.774 Y102.909 E2.51108
G1 X132.957 Y103.186 E2.52654
G1 X133.665 Y104.425 E2.59299
G1 X133.849 Y104.804 E2.61261
G1 X134.285 Y105.839 E2.6649
G1 X134.39 Y106.134 E2.67948
G1 X134.652 Y106.978 E2.72063
G1 X134.805 Y107.547 E2.74807
G1 X135.006 Y108.463 E2.79174
G1 X135.127 Y109.212 E2.82706
G1 X135.168 Y109.537 E2.84232
G1 X135.234 Y110.219 E2.87422
G1 X135.325 Y111.617 E2.93946
G1 X135.528 Y114.169 E3.05866
G1 X135.893 Y117.486 E3.21405
G1 X135.955 Y118.46 E3.2595
G1 X135.93 Y119.431 E3.30472
G1 X135.83 Y120.329 E3.3468
G1 X135.579 Y121.52 E3.40347
G1 X135.255 Y122.716 E3.46117
G1 X135.026 Y123.488 E3.49867
G1 X134.707 Y124.409 E3.54405
G1 X134.309 Y125.297 E3.58936
G1 X133.832 Y126.147 E3.63475
G1 X133.274 Y126.962 E3.68074
G1 X132.399 Y127.989 E3.74357
G1 X131.639 Y128.769 E3.79428
G1 X130.932 Y129.46 E3.84031
G1 X130.232 Y130.086 E3.88404
G1 X129.422 Y130.689 E3.93106
G1 X128.592 Y131.198 E3.9764
G1 X127.746 Y131.62 E4.02042
G1 X126.452 Y132.102 E4.08472
G1 X125.491 Y132.388 E4.13141
G1 X122.27 Y133.287 E4.28712
G1 X119.517 Y134.148 E4.42143
G1 X118.275 Y134.552 E4.48225
G1 X117.01 Y134.926 E4.54367
G1 X116.167 Y135.149 E4.58428
G1 X115.215 Y135.354 E4.62962
G1 X114.248 Y135.475 E4.675
G1 X113.275 Y135.51 E4.72034
G1 X112.373 Y135.465 E4.76239
G1 X111.337 Y135.32 E4.8111
G1 X110.398 Y135.1 E4.85601
G1 X109.254 Y134.775 E4.91139
G1 X108.536 Y134.551 E4.94641
G1 X107.62 Y134.219 E4.99178
G1 X106.77 Y133.824 E5.03542
G1 X105.897 Y133.32 E5.08236
G1 X105.153 Y132.801 E5.1246
G1 X102.996 Y131.155 E5.25094
G1 X100.943 Y129.675 E5.36879
G1 X98.862 Y128.266 E5.48581
G1 X96.737 Y126.912 E5.60314
G1 X94.591 Y125.632 E5.71949
G1 X92.385 Y124.394 E5.83728
G1 X91.55 Y123.941 E5.88152
G1 X90.38 Y123.212 E5.94571
G1 X89.442 Y122.481 E6.00108
G1 X88.651 Y121.731 E6.05184
G1 X88.385 Y121.45 E6.06986
G1 X87.746 Y120.712 E6.11531
G1 X87.172 Y119.918 E6.16093
G1 X86.977 Y119.619 E6.17755
G1 X86.485 Y118.788 E6.22252
G1 X86.115 Y118.039 E6.26142
G1 X85.615 Y116.832 E6.32226
G1 X85.326 Y115.898 E6.36778
G1 X85.171 Y115.321 E6.3956
G1 X84.968 Y114.397 E6.43965
G1 X84.843 Y113.608 E6.47685
G1 X84.804 Y113.291 E6.49172
G1 X84.738 Y112.569 E6.52548
G1 X84.711 Y112.108 E6.54699
G1 X84.696 Y111.265 E6.58625
G1 X84.708 Y110.766 E6.60949
G1 X84.761 Y109.911 E6.64938
G1 X84.812 Y109.427 E6.67204
G1 X84.902 Y108.762 E6.70329
G1 X84.969 Y108.368 E6.7219
G1 X85.173 Y107.424 E6.76687
G1 X85.421 Y106.557 E6.80886
G1 X85.604 Y106.004 E6.83598
G1 X85.923 Y105.159 E6.87804
G1 X86.306 Y104.339 E6.92018
G1 X86.958 Y103.183 E6.98198
G1 X87.167 Y102.862 E6.99982
G1 X87.691 Y102.127 E7.04185
G1 X88.324 Y101.374 E7.08765
G1 X89.034 Y100.654 E7.13474
M204 S2000
G0 F7500 X89.319 Y100.935
M204 S500
G1 F1500 X90.237 Y100.171 E7.19035
G1 X90.531 Y99.954 E7.20737
G1 X91.41 Y99.372 E7.25646
G1 X94.008 Y97.837 E7.39697
G1 X96.174 Y96.468 E7.51628
G1 X98.263 Y95.063 E7.63351
G1 X100.315 Y93.598 E7.75091
G1 X102.351 Y92.056 E7.86984
G1 X104.32 Y90.481 E7.98724
G1 X105.08 Y89.928 E8.03101
G1 X105.884 Y89.446 E8.07466
G1 X106.696 Y89.05 E8.11673
G1 X107.968 Y88.59 E8.17971
G1 X109.236 Y88.223 E8.24118
G1 X109.901 Y88.047 E8.27321
G1 X110.818 Y87.848 E8.3169
G1 X111.749 Y87.731 E8.36059
G1 X112.687 Y87.696 E8.4043
G1 X113.589 Y87.741 E8.44635
G1 X114.55 Y87.876 E8.49154
G1 X115.311 Y88.047 E8.52786
G1 X116.68 Y88.413 E8.59385
G1 X117.351 Y88.612 E8.62644
G1 X118.236 Y88.92 E8.67007
G1 X119.093 Y89.305 E8.71382
G1 X119.911 Y89.765 E8.75752
G1 X120.686 Y90.295 E8.80124
G1 X121.408 Y90.888 E8.84474
G1 X121.936 Y91.398 E8.87892
G1 X122.718 Y92.206 E8.93128
G1 X123.322 Y92.857 E8.97263
G1 X123.711 Y93.302 E9.00015
G1 X124.542 Y94.312 E9.06106
G1 X126.19 Y96.26 E9.17987
G1 X127.874 Y98.139 E9.29736
G1 X129.628 Y99.991 E9.41613
G1 X130.739 Y101.107 E9.48946
G1 X131.287 Y101.682 E9.52645
G1 X131.903 Y102.391 E9.57018
G1 X132.44 Y103.129 E9.61268
G1 X132.623 Y103.406 E9.62814
G1 X133.305 Y104.6 E9.69217
G1 X133.48 Y104.96 E9.71081
G1 X133.908 Y105.974 E9.76206
G1 X134.008 Y106.253 E9.77586
G1 X134.266 Y107.082 E9.81628
G1 X134.414 Y107.633 E9.84285
G1 X134.611 Y108.527 E9.88548
G1 X134.73 Y109.263 E9.92019
G1 X134.77 Y109.576 E9.93489
G1 X134.835 Y110.245 E9.96619
G1 X134.926 Y111.649 E10.0317
G1 X135.13 Y114.213 E10.15147
G1 X135.494 Y117.512 E10.30601
G1 X135.555 Y118.45 E10.34978
G1 X135.532 Y119.387 E10.39343
G1 X135.432 Y120.285 E10.4355
G1 X135.193 Y121.415 E10.48928
G1 X134.871 Y122.603 E10.5466
G1 X134.648 Y123.358 E10.58325
G1 X134.342 Y124.246 E10.62699
G1 X133.96 Y125.102 E10.67064
G1 X133.502 Y125.922 E10.71437
G1 X132.969 Y126.703 E10.7584
G1 X132.112 Y127.71 E10.81997
G1 X131.359 Y128.483 E10.87022
G1 X130.665 Y129.162 E10.91543
G1 X129.993 Y129.765 E10.95747
G1 X129.212 Y130.348 E11.00285
G1 X128.413 Y130.84 E11.04655
G1 X127.606 Y131.245 E11.08859
G1 X126.312 Y131.727 E11.15289
G1 X125.383 Y132.003 E11.19802
G1 X122.151 Y132.905 E11.35426
G1 X119.398 Y133.766 E11.48858
G1 X118.151 Y134.172 E11.54964
G1 X116.907 Y134.539 E11.61004
G1 X116.082 Y134.758 E11.64978
G1 X115.165 Y134.957 E11.69348
G1 X114.233 Y135.075 E11.73722
G1 X113.295 Y135.11 E11.78093
G1 X112.393 Y135.065 E11.82298
G1 X111.428 Y134.93 E11.86835
G1 X110.507 Y134.715 E11.91239
G1 X109.373 Y134.393 E11.96728
G1 X108.672 Y134.175 E12.00147
G1 X107.789 Y133.856 E12.04518
G1 X106.939 Y133.461 E12.08883
G1 X106.126 Y132.992 E12.13253
G1 X105.396 Y132.483 E12.17397
G1 X103.23 Y130.83 E12.30084
G1 X101.177 Y129.351 E12.41866
G1 X99.086 Y127.935 E12.53625
G1 X96.952 Y126.575 E12.65409
G1 X94.787 Y125.283 E12.77148
G1 X92.576 Y124.042 E12.88955
G1 X91.741 Y123.589 E12.93378
G1 X90.592 Y122.873 E12.99682
G1 X89.717 Y122.191 E13.04848
G1 X88.941 Y121.456 E13.09825
G1 X88.687 Y121.188 E13.11544
G1 X88.07 Y120.478 E13.15924
G1 X87.507 Y119.699 E13.204
G1 X87.321 Y119.415 E13.2198
G1 X86.844 Y118.611 E13.26333
G1 X86.474 Y117.862 E13.30223
G1 X85.997 Y116.714 E13.36012
G1 X85.712 Y115.794 E13.40497
G1 X85.562 Y115.235 E13.43192
G1 X85.359 Y114.311 E13.47597
G1 X85.24 Y113.558 E13.51147
G1 X85.202 Y113.254 E13.52573
G1 X85.137 Y112.546 E13.55884
G1 X85.111 Y112.101 E13.5796
G1 X85.096 Y111.274 E13.61811
G1 X85.107 Y110.791 E13.64061
G1 X85.159 Y109.952 E13.67975
G1 X85.208 Y109.481 E13.7018
G1 X85.296 Y108.829 E13.73244
G1 X85.36 Y108.452 E13.75024
G1 X85.564 Y107.508 E13.79521
G1 X85.801 Y106.682 E13.83523
G1 X85.978 Y106.145 E13.86155
G1 X86.297 Y105.3 E13.90361
G1 X86.654 Y104.535 E13.94292
G1 X87.293 Y103.401 E14.00353
G1 X87.493 Y103.094 E14.02059
G1 X88.017 Y102.359 E14.06262
G1 X88.609 Y101.655 E14.10545
G1 X89.319 Y100.935 E14.15254
M204 S2000
G0 F7500 X89.604 Y101.216
M204 S500
G1 F1500 X90.475 Y100.493 E14.20525
G1 X90.752 Y100.288 E14.2213
G1 X91.631 Y99.706 E14.27038
G1 X94.22 Y98.176 E14.41042
G1 X96.388 Y96.806 E14.52983
G1 X98.495 Y95.389 E14.64807
G1 X100.557 Y93.917 E14.76604
G1 X102.593 Y92.375 E14.88497
G1 X104.556 Y90.804 E15.00204
G1 X105.286 Y90.271 E15.04413
G1 X106.059 Y89.806 E15.08613
G1 X106.871 Y89.41 E15.1282
G1 X108.079 Y88.974 E15.188
G1 X109.339 Y88.61 E15.24907
G1 X109.986 Y88.438 E15.28024
G1 X110.869 Y88.245 E15.32233
G1 X111.764 Y88.131 E15.36434
G1 X112.667 Y88.096 E15.40642
G1 X113.569 Y88.141 E15.44847
G1 X114.463 Y88.266 E15.49051
G1 X115.208 Y88.433 E15.52606
G1 X116.566 Y88.796 E15.59151
G1 X117.22 Y88.99 E15.62328
G1 X118.073 Y89.285 E15.66531
G1 X118.898 Y89.654 E15.70739
G1 X119.686 Y90.095 E15.74944
G1 X120.432 Y90.604 E15.79149
G1 X121.13 Y91.176 E15.83351
G1 X121.649 Y91.676 E15.86707
G1 X122.425 Y92.478 E15.91903
G1 X123.021 Y93.12 E15.95982
G1 X123.402 Y93.556 E15.98678
G1 X124.233 Y94.566 E16.04768
G1 X125.892 Y96.527 E16.16729
G1 X127.576 Y98.406 E16.28478
G1 X129.345 Y100.273 E16.40454
G1 X130.45 Y101.383 E16.47747
G1 X130.986 Y101.945 E16.51364
G1 X131.58 Y102.626 E16.55571
G1 X132.107 Y103.35 E16.59741
G1 X132.276 Y103.605 E16.61166
G1 X132.945 Y104.775 E16.67441
G1 X133.111 Y105.116 E16.69207
G1 X133.539 Y106.13 E16.74332
G1 X133.626 Y106.372 E16.7553
G1 X133.88 Y107.185 E16.79496
G1 X134.023 Y107.719 E16.8207
G1 X134.216 Y108.591 E16.86229
G1 X134.333 Y109.315 E16.89644
G1 X134.372 Y109.615 E16.91052
G1 X134.436 Y110.271 E16.94122
G1 X134.527 Y111.681 E17.00701
G1 X134.732 Y114.257 E17.12734
G1 X135.095 Y117.539 E17.28109
G1 X135.155 Y118.441 E17.32319
G1 X135.134 Y119.343 E17.3652
G1 X135.034 Y120.241 E17.40727
G1 X134.807 Y121.31 E17.45816
G1 X134.487 Y122.49 E17.51509
G1 X134.27 Y123.228 E17.55091
G1 X133.977 Y124.083 E17.59299
G1 X133.61 Y124.908 E17.63504
G1 X133.171 Y125.697 E17.67708
G1 X132.664 Y126.444 E17.71912
G1 X131.807 Y127.451 E17.78069
G1 X131.079 Y128.197 E17.82923
G1 X130.398 Y128.864 E17.87361
G1 X129.726 Y129.467 E17.91566
G1 X129.002 Y130.008 E17.95774
G1 X128.234 Y130.482 E17.99976
G1 X127.427 Y130.887 E18.04181
G1 X126.173 Y131.352 E18.10409
G1 X125.276 Y131.618 E18.14765
G1 X122.032 Y132.523 E18.30447
G1 X119.279 Y133.384 E18.43879
G1 X118.027 Y133.792 E18.5001
G1 X116.804 Y134.152 E18.55947
G1 X115.996 Y134.367 E18.5984
G1 X115.114 Y134.56 E18.64044
G1 X114.218 Y134.675 E18.68251
G1 X113.315 Y134.71 E18.72459
G1 X112.413 Y134.665 E18.76664
G1 X111.519 Y134.54 E18.80867
G1 X110.616 Y134.33 E18.85184
G1 X109.491 Y134.011 E18.90629
G1 X108.807 Y133.799 E18.93964
G1 X107.957 Y133.493 E18.9817
G1 X107.138 Y133.114 E19.02372
G1 X106.355 Y132.664 E19.06578
G1 X105.639 Y132.165 E19.10641
G1 X103.464 Y130.505 E19.23382
G1 X101.411 Y129.027 E19.35161
G1 X99.31 Y127.604 E19.46977
G1 X97.167 Y126.238 E19.5881
G1 X94.983 Y124.934 E19.70655
G1 X92.767 Y123.69 E19.82488
G1 X91.932 Y123.237 E19.86912
G1 X90.804 Y122.534 E19.93101
G1 X89.992 Y121.9 E19.97898
G1 X89.231 Y121.18 E20.02776
G1 X88.988 Y120.925 E20.04416
G1 X88.394 Y120.244 E20.08624
G1 X87.842 Y119.48 E20.13013
G1 X87.665 Y119.21 E20.14516
G1 X87.203 Y118.434 E20.18721
G1 X86.833 Y117.685 E20.22611
G1 X86.379 Y116.595 E20.28109
G1 X86.098 Y115.69 E20.32522
G1 X85.953 Y115.149 E20.3513
G1 X85.75 Y114.225 E20.39535
G1 X85.637 Y113.508 E20.42915
G1 X85.6 Y113.217 E20.44281
G1 X85.536 Y112.523 E20.47526
G1 X85.511 Y112.094 E20.49527
G1 X85.496 Y111.283 E20.53304
G1 X85.506 Y110.816 E20.55479
G1 X85.557 Y109.993 E20.59319
G1 X85.604 Y109.535 E20.61463
G1 X85.691 Y108.895 E20.6447
G1 X85.751 Y108.536 E20.66165
G1 X85.955 Y107.592 E20.70662
G1 X86.181 Y106.807 E20.74466
G1 X86.352 Y106.286 E20.77019
G1 X86.671 Y105.441 E20.81225
G1 X87.003 Y104.731 E20.84875
G1 X87.629 Y103.619 E20.90817
G1 X87.819 Y103.326 E20.92443
G1 X88.343 Y102.591 E20.96646
G1 X88.894 Y101.936 E21.00631
G1 X89.604 Y101.216 E21.0534
M204 S2000
G1 F2400 E20.2534
G0 F7500 X109.871 Y100.157
M204 S500
G1 F2400 E21.0534
G1 F1500 X111.028 Y98.938 E21.13166
G1 X112.623 Y98.49 E21.2088
G1 X114.218 Y98.938 E21.28595
G1 X115.375 Y100.157 E21.3642
G1 X115.82 Y101.684 E21.43827
G1 X115.372 Y103.283 E21.51559
G1 X114.22 Y104.435 E21.59145
G1 X112.698 Y104.861 E21.66504
G1 X112.546 Y104.861 E21.67212
G1 X111.094 Y104.436 E21.74257
G1 X109.873 Y103.215 E21.82298
G1 X109.424 Y101.686 E21.89718
G1 X109.871 Y100.157 E21.97136
M204 S2000
G0 F7500 X110.228 Y100.361
M204 S500
G1 F1500 X111.242 Y99.293 E22.03993
G1 X112.623 Y98.905 E22.10672
G1 X114.004 Y99.293 E22.17352
G1 X115.018 Y100.361 E22.24209
G1 X115.404 Y101.686 E22.30636
G1 X115.015 Y103.074 E22.37348
G1 X114.011 Y104.078 E22.43959
G1 X112.644 Y104.461 E22.5057
G1 X112.604 Y104.461 E22.50756
G1 X111.305 Y104.081 E22.57058
G1 X110.228 Y103.004 E22.6415
G1 X109.841 Y101.685 E22.70551
G1 X110.228 Y100.361 E22.76974
M204 S2000
G0 F7500 X110.586 Y100.565
M204 S500
G1 F1500 X111.456 Y99.649 E22.82857
G1 X112.623 Y99.321 E22.88501
G1 X113.79 Y99.649 E22.94146
G1 X114.66 Y100.565 E23.00028
G1 X114.988 Y101.689 E23.05481
G1 X114.658 Y102.865 E23.11168
G1 X113.802 Y103.721 E23.16805
G1 X112.626 Y104.051 E23.22492
G1 X111.516 Y103.726 E23.27878
G1 X110.583 Y102.793 E23.34022
G1 X110.258 Y101.685 E23.39399
G1 X110.586 Y100.565 E23.44833
M204 S2000
G0 F7500 X110.942 Y100.773
M204 S500
G1 F1500 X111.672 Y100.004 E23.4977
G1 X112.623 Y99.736 E23.54371
G1 X113.574 Y100.004 E23.58972
G1 X114.304 Y100.773 E23.63909
G1 X114.572 Y101.692 E23.68366
G1 X114.302 Y102.655 E23.73023
G1 X113.592 Y103.365 E23.77699
G1 X112.629 Y103.635 E23.82356
G1 X111.727 Y103.371 E23.86732
G1 X110.937 Y102.581 E23.91934
G1 X110.675 Y101.686 E23.96277
G1 X110.942 Y100.773 E24.00706
M204 S2000
G0 F7500 X111.299 Y100.977
M204 S500
G1 F1500 X111.885 Y100.359 E24.04672
G1 X112.623 Y100.152 E24.08241
G1 X113.361 Y100.359 E24.1181
G1 X113.947 Y100.977 E24.15776
G1 X114.156 Y101.694 E24.19253
G1 X113.945 Y102.446 E24.2289
G1 X113.382 Y103.009 E24.26598
G1 X112.632 Y103.219 E24.30224
G1 X111.937 Y103.015 E24.33597
G1 X111.292 Y102.37 E24.37844
G1 X111.092 Y101.686 E24.41163
G1 X111.299 Y100.977 E24.44602
M204 S2000
G0 F7500 X111.656 Y101.181
M204 S500
G1 F1500 X112.099 Y100.714 E24.47599
G1 X112.623 Y100.567 E24.50133
G1 X113.147 Y100.714 E24.52668
G1 X113.59 Y101.181 E24.55665
G1 X113.74 Y101.696 E24.58163
G1 X113.589 Y102.236 E24.60774
G1 X113.173 Y102.652 E24.63513
G1 X112.633 Y102.803 E24.66124
G1 X112.15 Y102.662 E24.68467
G1 X111.647 Y102.159 E24.71779
G1 X111.508 Y101.686 E24.74075
G1 X111.656 Y101.181 E24.76525
M204 S2000
G0 F7500 X112.012 Y101.387
M204 S500
G1 F1500 X112.314 Y101.069 E24.78567
G1 X112.623 Y100.982 E24.80062
G1 X112.932 Y101.069 E24.81557
G1 X113.234 Y101.387 E24.83599
G1 X113.324 Y101.696 E24.85097
G1 X113.23 Y102.031 E24.86718
G1 X112.968 Y102.293 E24.88443
G1 X112.634 Y102.387 E24.90059
G1 X112.358 Y102.306 E24.91398
G1 X112.004 Y101.952 E24.93729
G1 X111.925 Y101.685 E24.95026
G1 X112.012 Y101.387 E24.96471
M204 S2000
G0 F7500 X112.37 Y101.591
M204 S500
G1 F1500 X112.528 Y101.424 E24.97542
G1 X112.623 Y101.398 E24.98
G1 X112.718 Y101.424 E24.98459
G1 X112.877 Y101.592 E24.99536
G1 X112.908 Y101.699 E25.00055
G1 X112.873 Y101.822 E25.0065
